X:529
T:B529-  Woe is Me (What Mun I Do)
S:James Paisable's tune for D'Urfey's song, 1694
Q:1/4=120
L:1/4
M:3/4
K:F
c3/2f/ c/A/|cAF|d3/2f/ d/B/|dBG|\
c/f/ (f/4g/4)a/ g/f/|gcA|B3/4c/4 d/c/ B/A/|G/F/ f/e/f:|\
":s:"a/f/ c/a/ g/f/|gcA|f/d/ A/f/ d/A/|=B(B/4c/4d/)G|\
g/e/ c/g/ e/c/|d/=B/ d/B/ G/g/|\
d/g/ e/g/ f/g/| e/d/4e/4 (f/4e/4)(d/4c/4)c|\
f3/4e/4 f/g/ f/e/|f3/2g/f|g3/4f/4 g/a/ g/f/|g3/2a/g|\
a3/4g/4 a/b/ a/g/|a3/4b/4 a/g/ f/f/|\
f3/4g/4 (f/4g/4)a/ g/f/|(f3/4g/4 f/)c/f|]
